src/assets/descending-sort.svg

<svg width="18" height="18" fill="none" xmlns="http://www.w3.org/2000/svg"><path d="M11.25 15.75V12c0-1.035.465-1.5 1.5-1.5s1.5.465 1.5 1.5v3.75m0-2.25h-3M14.25 7.5h-3l3-5.25h-3M3 11.25l2.25 2.25 2.25-2.25M5.25 4.5v9" stroke="#16ABF8" stroke-linecap="round" stroke-linejoin="round"/></svg>

<svg width="18" height="18" viewBox="0 0 18 18" fill="none" xmlns="http://www.w3.org/2000/svg">
<path d="M11.25 15.75V12C11.25 10.965 11.715 10.5 12.75 10.5C13.785 10.5 14.25 10.965 14.25 12V15.75M14.25 13.5H11.25" stroke="#16ABF8" stroke-linecap="round" stroke-linejoin="round"/>
<path d="M14.25 7.5H11.25L14.25 2.25H11.25" stroke="#16ABF8" stroke-linecap="round" stroke-linejoin="round"/>
<path d="M3 11.25L5.25 13.5L7.5 11.25" stroke="#16ABF8" stroke-linecap="round" stroke-linejoin="round"/>
<path d="M5.25 4.5V13.5" stroke="#16ABF8" stroke-linecap="round" stroke-linejoin="round"/>
</svg>
